src/16/panel/youtube-indicator-light-sync2.svg

<svg xmlns="http://www.w3.org/2000/svg" width="16" height="16" version="1.1">
 <defs>
  <style id="current-color-scheme" type="text/css">
   .ColorScheme-Text { color:#dfdfdf; } .ColorScheme-Highlight { color:#4285f4; }
  </style>
 </defs>
 <path style="fill:currentColor" class="ColorScheme-Text" d="M 8.1074219 2 C 6.2376219 2.0004 3.4791438 2.1237438 2.6523438 2.1523438 C 1.7535436 2.2383437 1.4219406 2.286375 0.93164062 2.734375 C 0.17682062 3.444975 1.4802974e-16 4.8425687 0 6.9804688 L 0 9.0136719 C 5.33e-08 11.451072 0.30353375 12.690578 0.80859375 13.142578 C 1.3856738 13.671578 1.7664175 13.712391 2.1484375 13.775391 C 2.2973375 13.798391 3.3557625 14 8.0390625 14 C 8.6038279 14 9.0046736 13.979914 9.5253906 13.970703 A 4 4 0 0 1 9 12 A 4 4 0 0 1 13 8 A 4 4 0 0 1 15.992188 9.3535156 C 15.993246 9.2394246 16 9.1439198 16 9.0253906 L 16 6.6582031 C 16 5.3929031 15.935266 3.6073219 15.197266 2.8574219 C 14.637266 2.3521219 14.433344 2.2110375 13.277344 2.1484375 C 12.951344 2.1330375 10.100122 1.99966 8.1074219 2 z M 7 5 L 11 8 L 7 11 L 7 5 z"/>
 <path style="fill:currentColor" class="ColorScheme-Text" d="M 14.5,9.4019237 C 13.065212,8.5735484 11.226924,9.0710581 10.401924,10.5 9.5769239,11.928941 10.065211,13.769701 11.5,14.598076 12.934787,15.426451 14.773076,14.928942 15.598076,13.5 16.423076,12.071059 15.934788,10.230299 14.5,9.4019237 Z M 14,10.267949 A 2,2 0 0 1 14.732051,13 L 13.866026,12.5 A 1,1 0 0 0 13.5,11.133974 L 14,10.267949 Z M 11.267949,11 12.133974,11.5 A 1,1 0 0 0 12.5,12.866026 L 12,13.732051 A 2,2 0 0 1 11.267949,11 Z"/>
</svg>

<svg xmlns="http://www.w3.org/2000/svg" width="16" height="16"><defs><style id="current-color-scheme" type="text/css">.ColorScheme-Text{color:#bebebe}</style></defs><path class="ColorScheme-Text" d="M8.107 2c-1.87 0-4.628.124-5.455.152-.898.086-1.23.134-1.72.582C.177 3.445 0 4.843 0 6.98v2.034c0 2.437.304 3.677.809 4.129.577.529.957.57 1.34.632.148.023 1.207.225 5.89.225.565 0 .966-.02 1.486-.03A4 4 0 0 1 9 12a4 4 0 0 1 4-4 4 4 0 0 1 2.992 1.354c.001-.115.008-.21.008-.329V6.658c0-1.265-.065-3.05-.803-3.8-.56-.506-.764-.647-1.92-.71C12.951 2.133 10.1 2 8.107 2zM7 5l4 3-4 3V5z" fill="currentColor"/><path class="ColorScheme-Text" d="M14.5 9.402a3.004 3.004 0 0 0-4.098 1.098 3.004 3.004 0 0 0 1.098 4.098 3.004 3.004 0 0 0 4.098-1.098A3.004 3.004 0 0 0 14.5 9.402zm-.5.866A2 2 0 0 1 14.732 13l-.866-.5a1 1 0 0 0-.366-1.366l.5-.866zM11.268 11l.866.5a1 1 0 0 0 .366 1.366l-.5.866A2 2 0 0 1 11.268 11z" fill="currentColor"/></svg>
